svgs/trendyol.svg

<svg xmlns="http://www.w3.org/2000/svg" viewBox="0 0 192 192"><path d="M18.484 132.058c-2.866-27.653-2.737-53.202.388-76.632l1-7.503h152.252l1.034 7.757c3.042 22.806 3.161 49.102.348 76.378L172.067 146H19.929Zm110.178-17.308c6.362-30.957 7.137-35.168 6.721-36.527-.824-2.69-3.245-1.483-3.837 1.912-.323 1.851-1.532 8.003-2.686 13.672l-2.099 10.308-2.209-12.631c-2.111-12.073-4.147-16.685-5.848-13.251-.433.875.749 8.908 2.628 17.852 2.977 14.173 3.282 17.02 2.376 22.167-1.387 7.878-1.333 8.517.722 8.517 1.263 0 2.462-3.404 4.232-12.019Zm-84.3-4.35c.228-3.208-.26-3.865-2.857-3.846-3.103.023-3.135-.07-3.418-9.936-.276-9.64-.2-9.979 2.381-10.577 3.736-.866 3.775-8.053.048-8.919-2.21-.513-2.62-1.512-2.62-6.391 0-4.469-.378-5.637-1.667-5.141-.933.359-1.812 2.748-1.996 5.43-.182 2.633-.932 5.48-1.667 6.326-1.763 2.028-1.709 6.948.092 8.343 1.033.801 1.428 4.07 1.428 11.808 0 13.491 1.784 18.167 6.619 17.346 2.545-.432 3.45-1.531 3.657-4.443Zm6.869-8.563c0-11.564.269-13.684 1.966-15.518 1.475-1.594 2.326-1.522 3.406.289 1.166 1.954 1.605 1.888 2.306-.347.476-1.519.872-3.38.88-4.136.03-2.884-3.502-4.919-8.082-4.656l-4.762.273-.273 18.745-.272 18.744h2.415c2.355 0 2.416-.338 2.416-13.394Zm23.521 8.727c2.288-3.995 2.443-4.847 1.08-5.917-.876-.688-2.455-.319-3.509.82-3.057 3.303-6.628 2.486-7.757-1.775-.978-3.688-.724-3.846 6.158-3.846h7.177v-5.917c0-8.62-4.503-17.16-9.049-17.16-2.576 0-4.203 1.46-6.264 5.622-8.422 17.003 3.177 43.867 12.164 28.173ZM63.613 91.33c0-.454.674-2.184 1.497-3.846 2.061-4.16 5.486-3.787 7.552.824 1.705 3.803 1.664 3.846-3.662 3.846-2.963 0-5.387-.371-5.387-.824Zm20.003 12.236c0-13.959 1.154-19.104 4.286-19.104 3.132 0 4.286 5.145 4.286 19.104 0 10.383.209 11.665 1.905 11.665 1.737 0 1.905-1.282 1.905-14.511 0-12.864-.267-15.049-2.351-19.258-2.058-4.154-3.041-4.667-7.858-4.102l-5.507.645-.273 18.613c-.258 17.621-.169 18.613 1.667 18.613 1.738 0 1.94-1.213 1.94-11.665Zm27.685 9.674c1.269-1.372 1.842-1.372 1.842 0 0 1.095.87 1.991 1.933 1.991 1.856 0 1.923-.985 1.667-24.496-.234-21.549-.467-24.573-1.933-25.141-1.369-.53-1.667.767-1.667 7.256 0 7.215-.16 7.728-1.842 5.91-4.797-5.182-10.725-.403-12.972 10.458-1.579 7.63-.901 13.839 2.263 20.724 2.603 5.665 7.206 7.083 10.709 3.298Zm-8.091-8.724c-3.365-6.794-.684-20.054 4.055-20.054 2.498 0 5.878 6.388 5.878 11.11 0 10.018-6.502 15.873-9.933 8.944Zm49.079 4.742c8.5-18.37-4.327-43.7-13.63-26.916-6.661 12.016-2.233 32.889 6.978 32.889 3.122 0 4.433-1.178 6.652-5.973Zm-10.191-3.191c-.576-.777-1.584-3.468-2.24-5.98-1.018-3.898-.92-5.307.666-9.616 2.388-6.488 6.182-7.476 8.756-2.28 2.344 4.732 2.488 9.283.48 15.073-1.478 4.259-5.492 5.727-7.662 2.803Zm18.669-15.977c0-22.908-.148-25.084-1.667-24.496-1.466.568-1.698 3.592-1.933 25.141-.256 23.511-.189 24.496 1.667 24.496 1.844 0 1.933-1.159 1.933-25.141Z"/></svg>

<svg
    xmlns="http://www.w3.org/2000/svg"
    viewBox="0 0 192 192"
    id="vector">
    <g id="group">
        <path
            id="path_6"
            d="M 18.484 132.058 C 15.618 104.405 15.747 78.856 18.872 55.426 L 19.872 47.923 L 172.124 47.923 L 173.158 55.68 C 176.2 78.486 176.319 104.782 173.506 132.058 L 172.067 146 L 19.929 146 Z M 128.662 114.75 C 135.024 83.793 135.799 79.582 135.383 78.223 C 134.559 75.533 132.138 76.74 131.546 80.135 C 131.223 81.986 130.014 88.138 128.86 93.807 L 126.761 104.115 L 124.552 91.484 C 122.441 79.411 120.405 74.799 118.704 78.233 C 118.271 79.108 119.453 87.141 121.332 96.085 C 124.309 110.258 124.614 113.105 123.708 118.252 C 122.321 126.13 122.375 126.769 124.43 126.769 C 125.693 126.769 126.892 123.365 128.662 114.75 Z M 44.362 110.4 C 44.59 107.192 44.102 106.535 41.505 106.554 C 38.402 106.577 38.37 106.484 38.087 96.618 C 37.811 86.978 37.887 86.639 40.468 86.041 C 44.204 85.175 44.243 77.988 40.516 77.122 C 38.306 76.609 37.896 75.61 37.896 70.731 C 37.896 66.262 37.518 65.094 36.229 65.59 C 35.296 65.949 34.417 68.338 34.233 71.02 C 34.051 73.653 33.301 76.5 32.566 77.346 C 30.803 79.374 30.857 84.294 32.658 85.689 C 33.691 86.49 34.086 89.759 34.086 97.497 C 34.086 110.988 35.87 115.664 40.705 114.843 C 43.25 114.411 44.155 113.312 44.362 110.4 Z M 51.231 101.837 C 51.231 90.273 51.5 88.153 53.197 86.319 C 54.672 84.725 55.523 84.797 56.603 86.608 C 57.769 88.562 58.208 88.496 58.909 86.261 C 59.385 84.742 59.781 82.881 59.789 82.125 C 59.819 79.241 56.287 77.206 51.707 77.469 L 46.945 77.742 L 46.672 96.487 L 46.4 115.231 L 48.815 115.231 C 51.17 115.231 51.231 114.893 51.231 101.837 Z M 74.752 110.564 C 77.04 106.569 77.195 105.717 75.832 104.647 C 74.956 103.959 73.377 104.328 72.323 105.467 C 69.266 108.77 65.695 107.953 64.566 103.692 C 63.588 100.004 63.842 99.846 70.724 99.846 L 77.901 99.846 L 77.901 93.929 C 77.901 85.309 73.398 76.769 68.852 76.769 C 66.276 76.769 64.649 78.229 62.588 82.391 C 54.166 99.394 65.765 126.258 74.752 110.564 Z M 63.613 91.33 C 63.613 90.876 64.287 89.146 65.11 87.484 C 67.171 83.324 70.596 83.697 72.662 88.308 C 74.367 92.111 74.326 92.154 69 92.154 C 66.037 92.154 63.613 91.783 63.613 91.33 Z M 83.616 103.566 C 83.616 89.607 84.77 84.462 87.902 84.462 C 91.034 84.462 92.188 89.607 92.188 103.566 C 92.188 113.949 92.397 115.231 94.093 115.231 C 95.83 115.231 95.998 113.949 95.998 100.72 C 95.998 87.856 95.731 85.671 93.647 81.462 C 91.589 77.308 90.606 76.795 85.789 77.36 L 80.282 78.005 L 80.009 96.618 C 79.751 114.239 79.84 115.231 81.676 115.231 C 83.414 115.231 83.616 114.018 83.616 103.566 Z M 111.301 113.24 C 112.57 111.868 113.143 111.868 113.143 113.24 C 113.143 114.335 114.013 115.231 115.076 115.231 C 116.932 115.231 116.999 114.246 116.743 90.735 C 116.509 69.186 116.276 66.162 114.81 65.594 C 113.441 65.064 113.143 66.361 113.143 72.85 C 113.143 80.065 112.983 80.578 111.301 78.76 C 106.504 73.578 100.576 78.357 98.329 89.218 C 96.75 96.848 97.428 103.057 100.592 109.942 C 103.195 115.607 107.798 117.025 111.301 113.24 Z M 103.21 104.516 C 99.845 97.722 102.526 84.462 107.265 84.462 C 109.763 84.462 113.143 90.85 113.143 95.572 C 113.143 105.59 106.641 111.445 103.21 104.516 Z M 152.289 109.258 C 160.789 90.888 147.962 65.558 138.659 82.342 C 131.998 94.358 136.426 115.231 145.637 115.231 C 148.759 115.231 150.07 114.053 152.289 109.258 Z M 142.098 106.067 C 141.522 105.29 140.514 102.599 139.858 100.087 C 138.84 96.189 138.938 94.78 140.524 90.471 C 142.912 83.983 146.706 82.995 149.28 88.191 C 151.624 92.923 151.768 97.474 149.76 103.264 C 148.282 107.523 144.268 108.991 142.098 106.067 Z M 160.767 90.09 C 160.767 67.182 160.619 65.006 159.1 65.594 C 157.634 66.162 157.402 69.186 157.167 90.735 C 156.911 114.246 156.978 115.231 158.834 115.231 C 160.678 115.231 160.767 114.072 160.767 90.09 Z"
            fill="#000000"
            stroke-width="12"/>
    </g>
</svg>
